X:7880
T:Mot i brystet
C:Johan Nicolaisen, words: Johan Nicolaisen
O:Norway
R:March
Z:Transcribed by Frank Nordberg - http://www.musicaviva.com
F:http://abc.musicaviva.com/tunes/nicolaisen-johan/mot-i-brystet-1.abc
M:2/4
L:1/8
K:C
"C"LG>G GG|"C"G>G GG|"F"Lc>c BA|"C"G2 E2S|
w:Mot i brys-tet, vett i pan-nen, st\aal i ben og ar-mer,
w:T\aa-le slit og t\aa-le sludd og t\aa-le frost og var-me,
"Dm7"LF>F FF|"G7"A>A GF|[1"C"E2 "G"G2|"C"c2 z2:|[2"C"E2 "G7"D2|"C"C2 z2||
